media/logo-toyota.svg

<svg width="64" height="42" viewBox="0 0 64 42" fill="none" xmlns="http://www.w3.org/2000/svg">
<path d="M46.2309 2.51191C36.9364 -0.170637 27.0653 -0.170637 17.7708 2.51191C7.23738 5.87575 0 12.8619 0 20.9343C0 32.2915 14.3265 41.5 32.0015 41.5C49.6765 41.5 64 32.2915 64 20.9343C64 12.8619 56.7622 5.87828 46.2309 2.51191ZM32.0015 32.6577C29.3639 32.6577 27.2102 27.5063 27.0839 21.0333C28.6699 21.1751 30.3151 21.2509 32.0015 21.2509C33.6878 21.2509 35.331 21.1751 36.9165 21.0333C36.7894 27.5063 34.6361 32.6577 32.0015 32.6577ZM27.4161 15.966C28.1364 11.4224 29.916 8.20418 32.0015 8.20418C34.087 8.20418 35.8657 11.4224 36.5843 15.966C35.1191 16.0973 33.584 16.1702 32.0015 16.1702C30.4189 16.1702 28.8834 16.0973 27.4161 15.966ZM39.3867 15.623C38.3164 8.49166 35.4145 3.37939 32.0015 3.37939C28.5885 3.37939 25.6844 8.49166 24.6141 15.623C18.114 14.6149 13.5706 12.321 13.5706 9.64829C13.5706 6.04706 21.8227 3.12727 32.0019 3.12727C42.1811 3.12727 50.4333 6.04706 50.4333 9.64829C50.4333 12.321 45.8894 14.6149 39.3888 15.623H39.3867ZM4.67224 20.1818C4.67224 16.7005 6.02091 13.4377 8.37462 10.6307C8.34712 10.8259 8.33296 11.0228 8.33224 11.2199C8.33224 15.5973 14.9548 19.3223 24.1874 20.6902C24.1802 21.021 24.1747 21.3523 24.1747 21.6873C24.1747 29.8305 26.4488 36.7278 29.5923 39.1059C15.6255 38.2574 4.67098 30.1108 4.67098 20.1818H4.67224ZM34.412 39.1059C37.5538 36.7278 39.827 29.8309 39.827 21.6873C39.827 21.3506 39.8236 21.021 39.8159 20.6902C49.0469 19.3219 55.6703 15.5973 55.6703 11.2199C55.6696 11.0228 55.6554 10.8259 55.6279 10.6307C57.9808 13.4377 59.3303 16.7005 59.3303 20.1818C59.3303 30.1108 48.3757 38.2574 34.412 39.1059Z" fill="black"/>
</svg>

<svg width="64" height="42" fill="none" xmlns="http://www.w3.org/2000/svg"><path d="M46.23 2.512a51.33 51.33 0 0 0-28.46 0C7.238 5.876 0 12.862 0 20.934 0 32.291 14.326 41.5 32.002 41.5 49.675 41.5 64 32.291 64 20.934c0-8.072-7.238-15.056-17.77-18.422ZM32.003 32.658c-2.638 0-4.792-5.152-4.918-11.625 1.586.142 3.231.218 4.918.218 1.686 0 3.329-.076 4.914-.218-.127 6.473-2.28 11.625-4.914 11.625Zm-4.586-16.692c.72-4.544 2.5-7.762 4.585-7.762 2.086 0 3.865 3.218 4.583 7.762a51.438 51.438 0 0 1-9.168 0Zm11.97-.343c-1.07-7.131-3.972-12.244-7.385-12.244-3.412 0-6.317 5.113-7.387 12.244-6.5-1.008-11.043-3.302-11.043-5.975 0-3.6 8.252-6.52 18.43-6.52 10.18 0 18.432 2.92 18.432 6.52 0 2.673-4.544 4.967-11.044 5.975h-.002ZM4.673 20.182c0-3.481 1.349-6.744 3.703-9.551a4.338 4.338 0 0 0-.043.589c0 4.377 6.623 8.102 15.855 9.47a45.7 45.7 0 0 0-.012.997c0 8.143 2.274 15.04 5.417 17.419-13.966-.849-24.921-8.995-24.921-18.924h.001Zm29.74 18.924c3.142-2.378 5.415-9.275 5.415-17.419 0-.336-.003-.666-.011-.997 9.23-1.368 15.854-5.093 15.854-9.47 0-.197-.015-.394-.042-.59 2.353 2.808 3.702 6.07 3.702 9.552 0 9.929-10.954 18.075-24.918 18.924Z" fill="#000"/></svg>
